!!!!SEGMENT: pl-sa--l-1636--016_anonim--keyboard-piece.krn
!!!cenid: 17xx:723
!!!COM: Anonim
!!!COM-rismid: pe30004985
!!!CDT:
!!!CNT:
!!!OTL: Keyboard piece
!!!PDT:
!!!AGN: Secular
!!!SMS-siglum: PL-SA
!!!SMS-shelfmark: L 1636
!!!SMS-shelfwork: 016 W
!!!SMS-variant:
!!!SMS-altvar:
!!!NIFC-rismid: 1001076400
!!!URL-scan: http://repozytorium.nifc.pl/skany/pl-sa-nut--l1636
!!!ONB-nifc: 5r, skan 0008, s. 7-8
**kern	**kern
*part1	*part1
*staff2	*staff1
*clefF4	*clefC1
*k[]	*k[]
*M2/2	*M2/2
*met(c|)	*met(c|)
=1	=1
*all\right	*all\right
*^	*
2F 2D/	1A	8d/L
.	.	8e/
.	.	8f/
.	.	8g/J
!	!	!LO:TX:a:t=P:problem:mixed beam
2E 2C#X/	.	8a\L
.	.	8e/J
.	.	8a\L
.	.	8g\J
*v	*v	*
=2	=2
*	*^
8D\L	2f/	4e\
8E\	.	.
8F\	.	[4d\
8G\J	.	.
8A\L	2e/	4d\]
8E\	.	.
8A\	.	[4c#X\
8G\J	.	.
=3	=3	=3
8F#X\L	2d/	4c#\]
8D\J	.	.
[<4G\	.	4B\
*	*	*2\right
4G\]	4c#X/	2A\
4F#\	4d/	.
*	*v	*v
=4	=4
*^	*
*	*^	*
2G/	1B	2E\	8e/L
.	.	.	8f#X/J
.	.	.	8g/L
.	.	.	8a/J
2F#X/	.	2D#X\	8b\L
!	!	!	!LO:TX:a:t=P:problem:# above
.	.	.	8f#X\J
.	.	.	8b\L
.	.	.	8a\J
*v	*v	*v	*
=5	=5
*	*^
8E\L	2g/	4f#\
8F#X\	.	.
8G\	.	[4e\
8A\J	.	.
8B\L	2f#X/	4e\]
8F#X\	.	.
8B\	.	[4d#X\
8A\J	.	.
!!LO:LB:g=original
=6	=6	=6
8G#\L	2e/	4d#\]
8E\	.	.
8A\	.	[4c#X\
8G#\J	.	.
8F#X\L	2dny/	4c#\]
8D\J	.	.
!LO:TX:a:t=P:problem:zamazane nuty, zapis prawdopodobny	!	!
8G#\L	.	4B\
8F#\J	.	.
=7	=7	=7
*^	*	*
8F\L	4ryy	4c/	2A\
8F 8D\J	.	.	.
!	!LO:N:vis=4	!	!
4G\	[>2G/	4d/	.
*2\right	*	*	*
2E\	.	8rc	2ryy
.	.	16e/LL	.
.	.	16f#/JJ	.
.	4G/]	8B/L	.
.	.	16c/L	.
.	.	16d/JJ	.
*	*	*v	*v
=8	=8	=8
8E\L	2ryy	[2c#X/
!LO:TX:a:t=P:problem:# above	!	!
16F#\L	.	.
16G\JJ	.	.
8C#X/L	.	.
16D/L	.	.
[>16E/JJ	.	.
2E/_	2AA\	8c#/L]
.	.	16d/L
.	.	16e/JJ
.	.	16f/LL
.	.	16c#X/
.	.	16d/
.	.	16A/JJ
=9	=9	=9
*	*	*^
16E/LL]	1AA	2d/	1ryy
16A/	.	.	.
16G/	.	.	.
16F/JJ	.	.	.
16E/LL	.	.	.
16D/	.	.	.
16C/L	.	.	.
32BB/	.	.	.
32AA/JJJ	.	.	.
8E/L	.	8c#/L	.
16F/L	.	16d/	.
16G/JJ	.	16e/J	.
*Xtuplet	*	*Xtuplet	*
24G/LL	.	24e/LL	.
24F/	.	24d/	.
24G/	.	24e/	.
24F/	.	24d/	.
!LO:N:vis=48	!	!LO:N:vis=48	!
24G/	.	24e/	.
!LO:N:vis=48	!	!LO:N:vis=48	!
24F/JJ	.	24d/JJ	.
4E/	4ryy	4c#/	8A\L
.	.	.	8G\J
*v	*v	*	*
*	*v	*v
=10	=10
1D 1AA 1DD	1d 1A 1F#X
=:|!	=:|!
*-	*-
!!!system-decoration: s1,s2
!!!RDF**kern: > = above
!!!RDF**kern: < = below
!!!ENC: Marta Lawrence
!!!END: 2020-12-07
!!!ENC: Tomasz Grochalski
!!!END: 2020-06-11
